X: 18
T: Drowsy Maggie
R: reel
M: 4/4
L: 1/8
K: Edor
|:E2BE dEBE|E2BE AFDF|E2BE dEBE|BABc dAFD|
E2BE E2 BE|E2 BE AF D2|E2BE dEBE|BABc dAFD||
|:defd cdec|defd fa a2|defd cdec|BABc dAFA|
defd cdec|defd fa a2|afge fdec|BABc dAFD||


Tune 27	Setting 12415

